X:1
T:Quarks
C:Tim Pillinger
M:4/4
L:1/8
K:Emin
EF E^G B2B2 | cBAc B4 | E2 E^G B2B2 | cBAc BA^G=F |
EF E^G B2B2 | cBAc B4 | edcB A2A2 | AGFG E4 :| 
| ~g4  fe dz | efed cdcB  | c2 c2 BA G2 | ABcd efgf |
| g2 g2 fe d2 | e2 e2 dc B2 | c2 c2 BA G2 | GFE[DB,] E4 :|